X:75
T:Three Sea Captains, The
R:set dance
I:speed 300
E:11
M:6/8
K:G
D|~G3 BGB|c2A F2D|GDG BGB|d2B G3|\
cec A3|BdB G3|A2B c2B|ABG FED|\
GDG BGB|c2A F2D|GDG BGB|d2B G3|\
cec A3|BdB G3|EcB AGF|~G3 G2:|\
d|gfg dcB|ABc def|gfg dBd|e2c A2d|\
g2a bge|f2g afd|~e3 ed^c|d3 z2 B|\
c2d ecA|B2c dBG|A2B c2B|ABG FED|\
GDG BGB|c2A F2D|~G3 BGB|d2B G3|\
cec A3|BdB G3|EcB AGF|~G3 G2:|**
<end>
<start>
